X: 10641
M: C|
L: 1/8
K: G
uD2 |\
dcBA GABc | dBGB d3B | ABcd BcAB | G2[E2G,2] [E2G,2] :|
|: u(dc) |\
P: Var. 1
|: u(D/E/F) |\
(GF)GA (BA)Bc | (dc)BA (GA)BG | A^GAB cBcd | (ed)cB (AB)cA |\
(GF)GA (BA)Bc | (dc)BA (GA)BG | ABcd BcAB | G2E2 :|
|: (dc) |\
dGFG BGFG | g(GFG) d2(cB) | ABcd BcAB | G2E2 E2 :|
P: Var. 2
|: u(D/E/F) |\
|: (ef) |\
(gf)gd (Bc)dB | (gf)gd (Bc)dB | (a^g)ae (cd)ec | (a^g)ae (cd)ec |\
(gf)gd (Bc)dc | g>age dBGB | ABce dcBA | G2E2 E2 :|
P: Var. 3
u(G,/A,/B,/C/) |\
|: u(dc) |\
(BG) (dG) (eG) (dG) | (BG) (dG) (eG) (dG) | (cA) (eA) (aA) (eA) | (cA) (eA) (aA) (eA) |\
(BG) (dG) (eG) (dG) | (g>a)ge (d/c/B/A/) GB | ABcd BcAB | G2E2 E2 :|
P: Var. 4
|: u((3DEF) |\
["2nd time, 8va. 3rd position."\
|: u(Bc) |\
dBGB gBGB | dBGB gBGB | ecAc acAc | ecAc acAc |\
dBGB gBGB | d(gfe) dBGB | ABce dBcA | G2E2 E2 :|
P: Var. 5
|: (gf) |\
egdg Bgdg | egdg Bgdg | eaca Aaca | eaca Aaca |\
egdg Bgdg | efge dBGB | AB (c/B/).A (d/c/).B (c/B/).A | G2E2 E2 :|
uD2 |\
dcBA GABc | dBGB d3(B | AB)cd BcAB | G2E2 "^Fine."E2 |]


